svg/blobs-icons/no-decorations/diving-tanks.svg

<svg xmlns="http://www.w3.org/2000/svg" xmlns:xlink="http://www.w3.org/1999/xlink" preserveAspectRatio="xMidYMid" width="206" height="218" viewBox="0 0 206 218"><defs><style>.cls-3{fill:#0f1d27}.cls-5{fill:#ff3a2f}.cls-7{fill:#020403;opacity:.35}.cls-9{fill:#142a3b}.cls-16{fill:#fbb713}.cls-18{fill:#fff}</style></defs><g id="group-25svg"><path d="M87.853 141.378s-13.621.0-13.621.0.0-37.113.0-37.113 13.621.0 13.621.0.0 37.113.0 37.113z" id="path-1" class="cls-3" fill-rule="evenodd"/><path d="M87.853 205.357s-13.621.0-13.621.0.0-37.114.0-37.114 13.621.0 13.621.0.0 37.114.0 37.114z" id="path-2" class="cls-3" fill-rule="evenodd"/><path d="M85.312 216.883s74.224.0 74.224.0.0-138.214.0-138.214c0-20.497-16.617-37.112-37.112-37.112-20.496.0-37.112 16.615-37.112 37.112V216.883z" id="path-3" class="cls-5" fill-rule="evenodd"/><path d="M.008 216.883s74.224.0 74.224.0.0-138.214.0-138.214c0-20.497-16.616-37.112-37.112-37.112C16.624 41.557.008 58.172.008 78.669V216.883z" id="path-4" class="cls-5" fill-rule="evenodd"/><path d="M122.424 41.557C119.483 41.557 116.637 41.935 113.893 42.58c16.378 3.86 28.581 18.534 28.581 36.089V216.882s17.062.0 17.062.0.0-138.213.0-138.213c0-20.497-16.617-37.112-37.112-37.112z" id="path-5" class="cls-7" fill-rule="evenodd"/><path d="M37.12 41.557c-2.94.0-5.787.378-8.531 1.023 16.378 3.86 28.582 18.534 28.582 36.089V216.882s17.061.0 17.061.0.0-138.213.0-138.213c0-20.497-16.616-37.112-37.112-37.112z" id="path-6" class="cls-7" fill-rule="evenodd"/><path d="M122.424 46.024c-1.997.0-3.614-1.619-3.614-3.615V3.618c0-1.996 1.617-3.614 3.614-3.614C124.419.004 126.038 1.622 126.038 3.618V42.409c0 1.996-1.619 3.615-3.61399999999999 3.615z" id="path-7" class="cls-9" fill-rule="evenodd"/><path d="M190.897 150.537C188.902 150.537 187.282 148.918 187.282 146.922V73.45c0-25.818-21.002-46.822-46.819-46.822H19.316c-1.996.0-3.613-1.618-3.613-3.614.0-1.996 1.617-3.615 3.613-3.615H140.463c29.803.0 54.048 24.247 54.048 54.051v73.472C194.511 148.918 192.893 150.537 190.897 150.537z" id="path-8" class="cls-9" fill-rule="evenodd"/><path d="M205.179 160.999c0 7.77500000000001-6.303 14.078-14.077 14.078-7.77500000000001.0-14.077-6.303-14.077-14.078.0-7.774 6.30199999999999-14.077 14.077-14.077 7.774.0 14.077 6.303 14.077 14.077z" id="path-9" class="cls-5" fill-rule="evenodd"/><path d="M192.782 147.092C195.165 149.614 196.648 152.992 196.648 156.734 196.648 164.51 190.346 170.812 182.572 170.812 181.995 170.812 181.448 170.709 180.891 170.643 183.457 173.359 187.07 175.077 191.102 175.077c7.774.0 14.077-6.303 14.077-14.078C205.179 153.8 199.755 147.932 192.782 147.092z" id="path-10" class="cls-7" fill-rule="evenodd"/><path d="M130.955 22.786C130.955 27.734 126.944 31.745 121.997 31.745s-8.958-4.011-8.958-8.959c0-4.947 4.011-8.958 8.958-8.958S130.955 17.839 130.955 22.786z" id="path-11" class="cls-5" fill-rule="evenodd"/><path d="M37.119 46.024c-1.996.0-3.614-1.619-3.614-3.615V3.618c0-1.996 1.618-3.614 3.614-3.614s3.615 1.618 3.615 3.614V42.409c0 1.996-1.619 3.615-3.615 3.615z" id="path-12" class="cls-9" fill-rule="evenodd"/><path d="M45.652 22.786c0 4.948-4.012 8.959-8.958 8.959-4.948.0-8.958-4.011-8.958-8.959.0-4.947 4.01-8.958 8.958-8.958 4.946.0 8.958 4.011 8.958 8.958z" id="path-13" class="cls-5" fill-rule="evenodd"/><path d="M159.536 178.491s-74.224.0-74.224.0.0-74.226.0-74.226 74.224.0 74.224.0.0 74.226.0 74.226z" id="path-14" class="cls-16" fill-rule="evenodd"/><path d="M74.232 178.491s-74.224.0-74.224.0.0-74.226.0-74.226 74.224.0 74.224.0.0 74.226.0 74.226z" id="path-15" class="cls-16" fill-rule="evenodd"/><path d="M8.538 159.067c-1.996.0-3.615-1.618-3.615-3.614V87.201c0-13.79 6.896-26.537 18.448-34.099 1.671-1.093 3.909-.625 5.002 1.044C29.469 55.816 29 58.057 27.332 59.15c-9.505 6.222-15.179 16.708-15.179 28.051v68.252c0 1.99600000000001-1.618 3.614-3.615 3.614z" id="path-16" class="cls-18" fill-rule="evenodd"/><path d="M93.843 159.067C91.846 159.067 90.228 157.449 90.228 155.453V87.201C90.228 73.41 97.123 60.663 108.674 53.102 110.348 52.009 112.589 52.477 113.68 54.146 114.773 55.817 114.305 58.058 112.636 59.15c-9.505 6.221-15.179 16.707-15.179 28.051v68.252C97.457 157.449 95.839 159.067 93.843 159.067z" id="path-17" class="cls-18" fill-rule="evenodd"/><path d="M142.474 104.265s0 74.226.0 74.226 17.062.0 17.062.0.0-74.226.0-74.226-17.062.0-17.062.0z" id="path-18" class="cls-7" fill-rule="evenodd"/><path d="M57.171 104.265s0 74.226.0 74.226 17.061.0 17.061.0.0-74.226.0-74.226-17.061.0-17.061.0z" id="path-19" class="cls-7" fill-rule="evenodd"/><path d="M136.823 144.993s-29.644.0-29.644.0c-1.996.0-3.613-1.619-3.613-3.61500000000001C103.566 139.382 105.183 137.762 107.179 137.762h29.644C138.819 137.762 140.438 139.382 140.438 141.378 140.438 143.374 138.819 144.993 136.823 144.993z" id="path-20" class="cls-9" fill-rule="evenodd"/><path d="M51.52 144.993s-29.644.0-29.644.0C19.88 144.993 18.261 143.374 18.261 141.378 18.261 139.382 19.88 137.762 21.876 137.762H51.52c1.996.0 3.614 1.62 3.614 3.61599999999999C55.134 143.374 53.516 144.993 51.52 144.993z" id="path-21" class="cls-9" fill-rule="evenodd"/></g></svg>

<svg xmlns="http://www.w3.org/2000/svg" xmlns:xlink="http://www.w3.org/1999/xlink" preserveAspectRatio="xMidYMid" width="206" height="218" viewBox="0 0 206 218">
  <defs>
    <style>

      .cls-3 {
        fill: #0f1d27;
      }

      .cls-5 {
        fill: #ff3a2f;
      }

      .cls-7 {
        fill: #020403;
        opacity: 0.35;
      }

      .cls-9 {
        fill: #142a3b;
      }

      .cls-16 {
        fill: #fbb713;
      }

      .cls-18 {
        fill: #ffffff;
      }
    </style>
  </defs>
  <g id="group-25svg">
    <path d="M87.853,141.378 C87.853,141.378 74.232,141.378 74.232,141.378 C74.232,141.378 74.232,104.265 74.232,104.265 C74.232,104.265 87.853,104.265 87.853,104.265 C87.853,104.265 87.853,141.378 87.853,141.378 Z" id="path-1" class="cls-3" fill-rule="evenodd"/>
    <path d="M87.853,205.357 C87.853,205.357 74.232,205.357 74.232,205.357 C74.232,205.357 74.232,168.243 74.232,168.243 C74.232,168.243 87.853,168.243 87.853,168.243 C87.853,168.243 87.853,205.357 87.853,205.357 Z" id="path-2" class="cls-3" fill-rule="evenodd"/>
    <path d="M85.312,216.883 C85.312,216.883 159.536,216.883 159.536,216.883 C159.536,216.883 159.536,78.669 159.536,78.669 C159.536,58.172 142.919,41.557 122.424,41.557 C101.928,41.557 85.312,58.172 85.312,78.669 C85.312,78.669 85.312,216.883 85.312,216.883 Z" id="path-3" class="cls-5" fill-rule="evenodd"/>
    <path d="M0.008,216.883 C0.008,216.883 74.232,216.883 74.232,216.883 C74.232,216.883 74.232,78.669 74.232,78.669 C74.232,58.172 57.616,41.557 37.120,41.557 C16.624,41.557 0.008,58.172 0.008,78.669 C0.008,78.669 0.008,216.883 0.008,216.883 Z" id="path-4" class="cls-5" fill-rule="evenodd"/>
    <path d="M122.424,41.557 C119.483,41.557 116.637,41.935 113.893,42.580 C130.271,46.440 142.474,61.114 142.474,78.669 C142.474,78.669 142.474,216.882 142.474,216.882 C142.474,216.882 159.536,216.882 159.536,216.882 C159.536,216.882 159.536,78.669 159.536,78.669 C159.536,58.172 142.919,41.557 122.424,41.557 Z" id="path-5" class="cls-7" fill-rule="evenodd"/>
    <path d="M37.120,41.557 C34.180,41.557 31.333,41.935 28.589,42.580 C44.967,46.440 57.171,61.114 57.171,78.669 C57.171,78.669 57.171,216.882 57.171,216.882 C57.171,216.882 74.232,216.882 74.232,216.882 C74.232,216.882 74.232,78.669 74.232,78.669 C74.232,58.172 57.616,41.557 37.120,41.557 Z" id="path-6" class="cls-7" fill-rule="evenodd"/>
    <path d="M122.424,46.024 C120.427,46.024 118.810,44.405 118.810,42.409 C118.810,42.409 118.810,3.618 118.810,3.618 C118.810,1.622 120.427,0.004 122.424,0.004 C124.419,0.004 126.038,1.622 126.038,3.618 C126.038,3.618 126.038,42.409 126.038,42.409 C126.038,44.405 124.419,46.024 122.424,46.024 Z" id="path-7" class="cls-9" fill-rule="evenodd"/>
    <path d="M190.897,150.537 C188.902,150.537 187.282,148.918 187.282,146.922 C187.282,146.922 187.282,73.450 187.282,73.450 C187.282,47.632 166.280,26.628 140.463,26.628 C140.463,26.628 19.316,26.628 19.316,26.628 C17.320,26.628 15.703,25.010 15.703,23.014 C15.703,21.018 17.320,19.399 19.316,19.399 C19.316,19.399 140.463,19.399 140.463,19.399 C170.266,19.399 194.511,43.646 194.511,73.450 C194.511,73.450 194.511,146.922 194.511,146.922 C194.511,148.918 192.893,150.537 190.897,150.537 Z" id="path-8" class="cls-9" fill-rule="evenodd"/>
    <path d="M205.179,160.999 C205.179,168.774 198.876,175.077 191.102,175.077 C183.327,175.077 177.025,168.774 177.025,160.999 C177.025,153.225 183.327,146.922 191.102,146.922 C198.876,146.922 205.179,153.225 205.179,160.999 Z" id="path-9" class="cls-5" fill-rule="evenodd"/>
    <path d="M192.782,147.092 C195.165,149.614 196.648,152.992 196.648,156.734 C196.648,164.510 190.346,170.812 182.572,170.812 C181.995,170.812 181.448,170.709 180.891,170.643 C183.457,173.359 187.070,175.077 191.102,175.077 C198.876,175.077 205.179,168.774 205.179,160.999 C205.179,153.800 199.755,147.932 192.782,147.092 Z" id="path-10" class="cls-7" fill-rule="evenodd"/>
    <path d="M130.955,22.786 C130.955,27.734 126.944,31.745 121.997,31.745 C117.050,31.745 113.039,27.734 113.039,22.786 C113.039,17.839 117.050,13.828 121.997,13.828 C126.944,13.828 130.955,17.839 130.955,22.786 Z" id="path-11" class="cls-5" fill-rule="evenodd"/>
    <path d="M37.119,46.024 C35.123,46.024 33.505,44.405 33.505,42.409 C33.505,42.409 33.505,3.618 33.505,3.618 C33.505,1.622 35.123,0.004 37.119,0.004 C39.115,0.004 40.734,1.622 40.734,3.618 C40.734,3.618 40.734,42.409 40.734,42.409 C40.734,44.405 39.115,46.024 37.119,46.024 Z" id="path-12" class="cls-9" fill-rule="evenodd"/>
    <path d="M45.652,22.786 C45.652,27.734 41.640,31.745 36.694,31.745 C31.746,31.745 27.736,27.734 27.736,22.786 C27.736,17.839 31.746,13.828 36.694,13.828 C41.640,13.828 45.652,17.839 45.652,22.786 Z" id="path-13" class="cls-5" fill-rule="evenodd"/>
    <path d="M159.536,178.491 C159.536,178.491 85.312,178.491 85.312,178.491 C85.312,178.491 85.312,104.265 85.312,104.265 C85.312,104.265 159.536,104.265 159.536,104.265 C159.536,104.265 159.536,178.491 159.536,178.491 Z" id="path-14" class="cls-16" fill-rule="evenodd"/>
    <path d="M74.232,178.491 C74.232,178.491 0.008,178.491 0.008,178.491 C0.008,178.491 0.008,104.265 0.008,104.265 C0.008,104.265 74.232,104.265 74.232,104.265 C74.232,104.265 74.232,178.491 74.232,178.491 Z" id="path-15" class="cls-16" fill-rule="evenodd"/>
    <path d="M8.538,159.067 C6.542,159.067 4.923,157.449 4.923,155.453 C4.923,155.453 4.923,87.201 4.923,87.201 C4.923,73.411 11.819,60.664 23.371,53.102 C25.042,52.009 27.280,52.477 28.373,54.146 C29.469,55.816 29.000,58.057 27.332,59.150 C17.827,65.372 12.153,75.858 12.153,87.201 C12.153,87.201 12.153,155.453 12.153,155.453 C12.153,157.449 10.535,159.067 8.538,159.067 Z" id="path-16" class="cls-18" fill-rule="evenodd"/>
    <path d="M93.843,159.067 C91.846,159.067 90.228,157.449 90.228,155.453 C90.228,155.453 90.228,87.201 90.228,87.201 C90.228,73.410 97.123,60.663 108.674,53.102 C110.348,52.009 112.589,52.477 113.680,54.146 C114.773,55.817 114.305,58.058 112.636,59.150 C103.131,65.371 97.457,75.857 97.457,87.201 C97.457,87.201 97.457,155.453 97.457,155.453 C97.457,157.449 95.839,159.067 93.843,159.067 Z" id="path-17" class="cls-18" fill-rule="evenodd"/>
    <path d="M142.474,104.265 C142.474,104.265 142.474,178.491 142.474,178.491 C142.474,178.491 159.536,178.491 159.536,178.491 C159.536,178.491 159.536,104.265 159.536,104.265 C159.536,104.265 142.474,104.265 142.474,104.265 Z" id="path-18" class="cls-7" fill-rule="evenodd"/>
    <path d="M57.171,104.265 C57.171,104.265 57.171,178.491 57.171,178.491 C57.171,178.491 74.232,178.491 74.232,178.491 C74.232,178.491 74.232,104.265 74.232,104.265 C74.232,104.265 57.171,104.265 57.171,104.265 Z" id="path-19" class="cls-7" fill-rule="evenodd"/>
    <path d="M136.823,144.993 C136.823,144.993 107.179,144.993 107.179,144.993 C105.183,144.993 103.566,143.374 103.566,141.378 C103.566,139.382 105.183,137.762 107.179,137.762 C107.179,137.762 136.823,137.762 136.823,137.762 C138.819,137.762 140.438,139.382 140.438,141.378 C140.438,143.374 138.819,144.993 136.823,144.993 Z" id="path-20" class="cls-9" fill-rule="evenodd"/>
    <path d="M51.520,144.993 C51.520,144.993 21.876,144.993 21.876,144.993 C19.880,144.993 18.261,143.374 18.261,141.378 C18.261,139.382 19.880,137.762 21.876,137.762 C21.876,137.762 51.520,137.762 51.520,137.762 C53.516,137.762 55.134,139.382 55.134,141.378 C55.134,143.374 53.516,144.993 51.520,144.993 Z" id="path-21" class="cls-9" fill-rule="evenodd"/>
  </g>
</svg>
